symbols/web/center_focus_weak/materialsymbolsrounded/center_focus_weak_wght200_48px.svg

<svg xmlns="http://www.w3.org/2000/svg" height="48" width="48"><path d="M24 29.6q-2.4 0-4-1.6t-1.6-4q0-2.4 1.6-4t4-1.6q2.4 0 4 1.6t1.6 4q0 2.4-1.6 4t-4 1.6Zm0-5.6Zm0 4.05q1.7 0 2.875-1.175T28.05 24q0-1.7-1.175-2.875T24 19.95q-1.7 0-2.875 1.175T19.95 24q0 1.7 1.175 2.875T24 28.05ZM8.75 17.85q-.3 0-.525-.225Q8 17.4 8 17.05v-6.3q0-1.15.8-1.95t1.95-.8h6.3q.35 0 .575.225.225.225.225.575 0 .3-.225.525-.225.225-.575.225h-6.3q-.5 0-.85.35t-.35.85v6.3q0 .35-.225.575-.225.225-.575.225Zm2 22.15q-1.15 0-1.95-.8T8 37.25v-6.3q0-.35.225-.575.225-.225.575-.225.3 0 .525.225.225.225.225.575v6.3q0 .5.35.85t.85.35h6.3q.35 0 .575.225.225.225.225.575 0 .3-.225.525Q17.4 40 17.05 40Zm20.2 0q-.35 0-.575-.225-.225-.225-.225-.575 0-.3.225-.525.225-.225.575-.225h6.3q.5 0 .85-.35t.35-.85v-6.3q0-.35.225-.575.225-.225.575-.225.3 0 .525.225.225.225.225.575v6.3q0 1.15-.8 1.95t-1.95.8Zm8.25-22.15q-.3 0-.525-.225-.225-.225-.225-.575v-6.3q0-.5-.35-.85t-.85-.35h-6.3q-.35 0-.575-.225-.225-.225-.225-.575 0-.3.225-.525Q30.6 8 30.95 8h6.3q1.15 0 1.95.8t.8 1.95v6.3q0 .35-.225.575-.225.225-.575.225Z"/></svg>

<svg xmlns="http://www.w3.org/2000/svg" height="48" width="48"><path d="M24 29.6Q21.6 29.6 20 28Q18.4 26.4 18.4 24Q18.4 21.6 20 20Q21.6 18.4 24 18.4Q26.4 18.4 28 20Q29.6 21.6 29.6 24Q29.6 26.4 28 28Q26.4 29.6 24 29.6ZM24 24Q24 24 24 24Q24 24 24 24Q24 24 24 24Q24 24 24 24Q24 24 24 24Q24 24 24 24Q24 24 24 24Q24 24 24 24ZM24 28.05Q25.7 28.05 26.875 26.875Q28.05 25.7 28.05 24Q28.05 22.3 26.875 21.125Q25.7 19.95 24 19.95Q22.3 19.95 21.125 21.125Q19.95 22.3 19.95 24Q19.95 25.7 21.125 26.875Q22.3 28.05 24 28.05ZM8.75 17.85Q8.45 17.85 8.225 17.625Q8 17.4 8 17.05V10.75Q8 9.6 8.8 8.8Q9.6 8 10.75 8H17.05Q17.4 8 17.625 8.225Q17.85 8.45 17.85 8.8Q17.85 9.1 17.625 9.325Q17.4 9.55 17.05 9.55H10.75Q10.25 9.55 9.9 9.9Q9.55 10.25 9.55 10.75V17.05Q9.55 17.4 9.325 17.625Q9.1 17.85 8.75 17.85ZM10.75 40Q9.6 40 8.8 39.2Q8 38.4 8 37.25V30.95Q8 30.6 8.225 30.375Q8.45 30.15 8.8 30.15Q9.1 30.15 9.325 30.375Q9.55 30.6 9.55 30.95V37.25Q9.55 37.75 9.9 38.1Q10.25 38.45 10.75 38.45H17.05Q17.4 38.45 17.625 38.675Q17.85 38.9 17.85 39.25Q17.85 39.55 17.625 39.775Q17.4 40 17.05 40ZM30.95 40Q30.6 40 30.375 39.775Q30.15 39.55 30.15 39.2Q30.15 38.9 30.375 38.675Q30.6 38.45 30.95 38.45H37.25Q37.75 38.45 38.1 38.1Q38.45 37.75 38.45 37.25V30.95Q38.45 30.6 38.675 30.375Q38.9 30.15 39.25 30.15Q39.55 30.15 39.775 30.375Q40 30.6 40 30.95V37.25Q40 38.4 39.2 39.2Q38.4 40 37.25 40ZM39.2 17.85Q38.9 17.85 38.675 17.625Q38.45 17.4 38.45 17.05V10.75Q38.45 10.25 38.1 9.9Q37.75 9.55 37.25 9.55H30.95Q30.6 9.55 30.375 9.325Q30.15 9.1 30.15 8.75Q30.15 8.45 30.375 8.225Q30.6 8 30.95 8H37.25Q38.4 8 39.2 8.8Q40 9.6 40 10.75V17.05Q40 17.4 39.775 17.625Q39.55 17.85 39.2 17.85Z"/></svg>
